!!!OTL@@DE: J&auml;gerlied
!!!ONB: Urspr&uuml;ngl. franz. J&auml;germel
!!!ONB: Pour aller &agrave; la chasse faue &ecirc;tre matineaux.
!!!ODT: 1724
!!!OMD: Lebhaft
!!!LYR: Hancke, Gottfried Benjamin
!!!LDT: 1724
!!!OCL: Erk, Ludwig
!!!GCO: Deutscher Liederschatz, Band 1
**kern	**kern	**kern
*staff3	*staff2	*staff1
*Ipiano	*Ipiano	*Ivox
*>[A,A,B]	*>[A,A,B]	*>[A,A,B]
*>norep[A,B]	*>norep[A,B]	*>norep[A,B]
*>A	*>A	*>A
*clefF4	*clefG2	*clefG2
*k[f#c#g#]	*k[f#c#g#]	*k[f#c#g#]
*A:	*A:	*A:
*M9/8	*M9/8	*M9/8
*MM84	*MM84	*MM84
8E\	8e/	8e/
=1	=1	=1
4AA\ 4E\ 4A\	4c#/ 4a/	4a/
8A\ 8c#\	8e/ 8a/	8a/
*^	*^	*
8.c#/L	4A\	8.a/L	4e\	8.a/
16B/k	.	16g#/k	.	16g#/
8c#/J	8A\	8a/J	8e\	8a/
*v	*v	*	*	*
8E\ 8B\L	8b/L	4e\	8b\
8C#\ 8A\	8a/	.	8a/
8E\ 8B\J	8b/J	8e\	8b\
*	*v	*v	*
=2	=2	=2
*M6/8	*M6/8	*M6/8
4A\ 4c#\	4e/ 4cc#/	4cc#\
8A\ 8c#\	8e/ 8cc#/	8cc#\
*	*^	*
8.E\ 8.B\L	8.b/L	4e\	(8.b/L
16C#\ 16A\k	16a/k	.	16a/Jk)
8E\ 8B\J	8b/J	8e\	8b\
*	*v	*v	*
=3	=3	=3
4AA\ 4A\	4c#/ 4a/	4a/
8A\	8r	8r
4AA/	4r	4r
=:|!	=:|!	=:|!
*>B	*>B	*>B
16A\ (16c#\LL	16a\ (16cc#\LL	16cc#\LL
16B\ 16d\JJ)	16b\ 16dd\JJ)	16dd\JJ
=4	=4	=4
4c#\ 4e\	4cc#\ 4ee\	4ee\
8A\ 8c#\	8a\ 8cc#\	8cc#\
8.A\ 8.c#\L	8.a/ 8.cc#/L	(8.cc#\L
16E\ 16B\k	16g#/ 16b/k	16b\Jk)
8A\ 8c#\J	8a/ 8cc#/J	8cc#\
=5	=5	=5
8B\ 8d\	8b\ 8dd\	8dd\
4E\ 4B\	4g#/ 4b/	4b\
4r	4r	4r
8E\	8e/	8e/
=6	=6	=6
4B\ 4d\	4b\ 4dd\	4dd\
8E\ 8B\	8b\ 8dd\	8dd\
8.A\ 8.c#\L	8.a/ 8.cc#/L	(8.cc#\L
16E\ 16B\k	16g#/ 16b/k	16b\Jk)
8A\ 8c#\J	8a/ 8cc#/J	8cc#\
=7	=7	=7
8.E\ 8.e\L	4.g#/ 4.b/	4.b\
16G#\k	.	.
8B\J	.	.
4e\	4r	4r
8E\	8e/	8e/
=8	=8	=8
*M9/8	*M9/8	*M9/8
4AA/ 4E/	4c#/ 4a/	4a/
8A\ 8c#\	8e/ 8a/	8a/
*^	*^	*
4A\	8.c#/L	8.a/L	4e\	(8.a/L
.	16B/k	16g#/k	.	16g#/Jk)
8A\	8c#/J	8a/J	8e\	8a/
*v	*v	*	*	*
8E\ 8B\L	8b/L	4e\	8b\
8C#\ 8A\	8a/	.	8a/
8E\ 8B\J	8b/J	8e\	8b\
*	*v	*v	*
=9	=9	=9
*M6/8	*M6/8	*M6/8
4A\ 4c#\	4e/ 4cc#/	4cc#\
8A\ 8c#\	8e/ 8cc#/	8cc#\
*	*^	*
8.E\ 8.B\L	8.b/L	4e\	(8.b/L
16C#\ 16A\k	16a/k	.	16a/Jk)
8E\ 8B\J	8b/J	8e\	8b\
*	*v	*v	*
=10	=10	=10
4AA\ 4A\	4c#/ 4a/	[4.a/
8A\	8r	.
4AA/	4r	8a/]
.	.	8r
==	==	==
*-	*-	*-
!!!ENC: Craig Stuart Sapp
!!!END: 2004/06/28/
!!!EFL: 146/651
